public/assets/logos/upquest-white.svg

<svg fill="none" height="30" viewBox="0 0 30 30" width="30" xmlns="http://www.w3.org/2000/svg"><path d="m15 3.00024c-2.3734 0-4.6934.70379-6.66684 2.02237-1.97339 1.31858-3.51146 3.19272-4.41971 5.38539-.90825 2.1928-1.14589 4.6056-.68287 6.9333.46302 2.3278 1.60591 4.466 3.28414 6.1442 1.67823 1.6783 3.81638 2.8211 6.14418 3.2842 2.3278.463 4.7406.2253 6.9333-.6829 2.1927-.9083 4.0669-2.4463 5.3854-4.4197 1.3186-1.9734 2.0224-4.2935 2.0224-6.6669-.0035-3.1815-1.2689-6.23167-3.5186-8.48134s-5.2999-3.51509-8.4814-3.51862zm0 21.33336c-1.846 0-3.6505-.5474-5.18532-1.573-1.53486-1.0255-2.73113-2.4832-3.43755-4.1886-.70642-1.7055-.89125-3.5821-.53112-5.3926s1.24904-3.47353 2.55433-4.77882 2.96836-2.1942 4.77886-2.55433c1.8104-.36013 3.6871-.1753 5.3925.53112 1.7055.70642 3.1631 1.90269 4.1887 3.43755 1.0255 1.53488 1.5729 3.33938 1.5729 5.18528-.0026 2.4746-.9868 4.847-2.7366 6.5968-1.7497 1.7497-4.1222 2.7339-6.5967 2.7366zm5.3878-8.4989c.2505.2505.3912.5902.3912.9444 0 .3543-.1407.694-.3912.9445s-.5902.3912-.9445.3912c-.3542 0-.6939-.1407-.9444-.3912l-3.4989-3.5011-3.5011 3.4989c-.2505.2504-.5902.3912-.9445.3912-.3542 0-.69391-.1408-.9444-.3912-.25048-.2505-.3912-.5903-.3912-.9445s.14072-.694.3912-.9444l4.4444-4.4445c.1239-.1243.2711-.2229.4332-.2902.162-.0673.3358-.1019.5113-.1019s.3492.0346.5113.1019.3093.1659.4331.2902z" fill="#fff"/></svg>

<svg width="30" height="30" viewBox="0 0 30 30" fill="none" xmlns="http://www.w3.org/2000/svg">
<path d="M15 3.00024C12.6266 3.00024 10.3066 3.70403 8.33316 5.02261C6.35977 6.34119 4.8217 8.21533 3.91345 10.408C3.0052 12.6008 2.76756 15.0136 3.23058 17.3413C3.6936 19.6691 4.83649 21.8073 6.51472 23.4855C8.19295 25.1638 10.3311 26.3066 12.6589 26.7697C14.9867 27.2327 17.3995 26.995 19.5922 26.0868C21.7849 25.1785 23.6591 23.6405 24.9776 21.6671C26.2962 19.6937 27 17.3736 27 15.0002C26.9965 11.8187 25.7311 8.76853 23.4814 6.51886C21.2317 4.26919 18.1815 3.00377 15 3.00024ZM15 24.3336C13.154 24.3336 11.3495 23.7862 9.81468 22.7606C8.27982 21.7351 7.08355 20.2774 6.37713 18.572C5.67071 16.8665 5.48588 14.9899 5.84601 13.1794C6.20614 11.3689 7.09505 9.70587 8.40034 8.40058C9.70563 7.09529 11.3687 6.20638 13.1792 5.84625C14.9896 5.48612 16.8663 5.67095 18.5717 6.37737C20.2772 7.08379 21.7348 8.28006 22.7604 9.81492C23.7859 11.3498 24.3333 13.1543 24.3333 15.0002C24.3307 17.4748 23.3465 19.8472 21.5967 21.597C19.847 23.3467 17.4745 24.3309 15 24.3336ZM20.3878 15.8347C20.6383 16.0852 20.779 16.4249 20.779 16.7791C20.779 17.1334 20.6383 17.4731 20.3878 17.7236C20.1373 17.9741 19.7976 18.1148 19.4433 18.1148C19.0891 18.1148 18.7494 17.9741 18.4989 17.7236L15 14.2225L11.4989 17.7214C11.2484 17.9718 10.9087 18.1126 10.5544 18.1126C10.2002 18.1126 9.86049 17.9718 9.61 17.7214C9.35952 17.4709 9.2188 17.1311 9.2188 16.7769C9.2188 16.4227 9.35952 16.0829 9.61 15.8325L14.0544 11.388C14.1783 11.2637 14.3255 11.1651 14.4876 11.0978C14.6496 11.0305 14.8234 10.9959 14.9989 10.9959C15.1744 10.9959 15.3481 11.0305 15.5102 11.0978C15.6723 11.1651 15.8195 11.2637 15.9433 11.388L20.3878 15.8347Z" fill="white"/>
</svg>
